public/img/telegram-black.svg

<svg width="21" height="20" viewBox="0 0 21 20" fill="none" xmlns="http://www.w3.org/2000/svg">
<path d="M19.3817 0.00204778C19.1347 0.0220537 18.8922 0.0865647 18.6638 0.193064H18.6607C18.4414 0.289857 17.3989 0.778105 15.8139 1.51819L10.1342 4.18128C6.0586 6.09145 2.05229 7.97249 2.05229 7.97249L2.1 7.95193C2.1 7.95193 1.82378 8.05301 1.53525 8.27314C1.357 8.39942 1.20362 8.56465 1.08438 8.75882C0.942808 8.9901 0.828936 9.34387 0.871253 9.70962C0.9405 10.3281 1.30058 10.699 1.5591 10.9037C1.8207 11.111 2.06999 11.2078 2.06999 11.2078H2.07615L5.83316 12.6168C6.00166 13.219 6.97804 16.7927 7.21271 17.6158C7.3512 18.1075 7.48585 18.415 7.65435 18.6497C7.73591 18.7696 7.83131 18.8698 7.94596 18.9504C8.00555 18.989 8.0691 19.0194 8.13523 19.0412L8.09676 19.0309C8.1083 19.0343 8.11753 19.0446 8.126 19.048C8.15677 19.0574 8.17755 19.0609 8.21679 19.0677C8.81154 19.2682 9.28934 18.857 9.28934 18.857L9.31627 18.833L11.5345 16.5845L15.2522 19.7598L15.3369 19.8001C16.1117 20.1787 16.8965 19.968 17.3112 19.5962C17.729 19.2219 17.8913 18.7431 17.8913 18.7431L17.9182 18.666L20.7912 2.28054C20.8728 1.87624 20.8935 1.49763 20.8035 1.13016C20.7107 0.758255 20.4964 0.438394 20.2026 0.233323C19.956 0.0663893 19.6699 -0.0141856 19.3817 0.00204778ZM19.3039 1.75803C19.3009 1.81199 19.3101 1.806 19.2886 1.90964V1.91906L16.4425 18.134C16.4302 18.1572 16.4094 18.2077 16.3525 18.2583C16.2925 18.3114 16.2448 18.3448 15.9947 18.2343L11.4475 14.3531L8.70074 17.1404L9.2778 13.0374L16.7072 5.32824C17.0134 5.0113 16.9111 4.94449 16.9111 4.94449C16.9326 4.5556 16.4487 4.83057 16.4487 4.83057L7.08037 11.2917L7.07729 11.2746L2.58703 9.59142V9.58799L2.57549 9.58542C2.58336 9.58251 2.59107 9.57908 2.59857 9.57514L2.62319 9.56143L2.64705 9.55201C2.64705 9.55201 6.65643 7.67097 10.732 5.76081C12.7724 4.80401 14.8283 3.84036 16.4094 3.09686C17.3472 2.65744 18.2858 2.22058 19.2255 1.7863C19.2886 1.75888 19.2586 1.75803 19.3039 1.75803Z" fill="#4D4D4D"/>
</svg>

<svg width="21" height="20" fill="none" xmlns="http://www.w3.org/2000/svg"><path d="M19.382.002c-.247.02-.49.085-.718.191h-.003c-.22.097-1.262.585-2.847 1.325l-5.68 2.663-8.082 3.791.048-.02s-.276.101-.565.321a1.653 1.653 0 00-.45.486 1.547 1.547 0 00-.214.95c.07.62.43.99.688 1.195.262.207.511.304.511.304h.006l3.757 1.409c.169.602 1.145 4.176 1.38 4.999.138.492.273.799.441 1.034.082.12.177.22.292.3a.82.82 0 00.19.091l-.04-.01c.012.003.022.014.03.017.03.01.052.013.09.02.596.2 1.073-.211 1.073-.211l.027-.024 2.218-2.248 3.718 3.175.085.04c.775.379 1.56.168 1.974-.204.418-.374.58-.853.58-.853l.027-.077 2.873-16.385c.082-.405.102-.783.012-1.15a1.543 1.543 0 00-.6-.898 1.328 1.328 0 00-.821-.231zm-.078 1.756c-.003.054.006.048-.015.152v.01l-2.847 16.214c-.012.023-.033.074-.09.124-.06.053-.107.087-.357-.024l-4.547-3.88L8.7 17.14l.577-4.103 7.43-7.709c.305-.317.203-.384.203-.384.022-.388-.462-.113-.462-.113L7.08 11.29l-.003-.016-4.49-1.684v-.003l-.012-.003a.195.195 0 00.024-.01l.024-.014.024-.009 8.085-3.791c2.04-.957 4.096-1.92 5.677-2.664.938-.44 1.877-.876 2.817-1.31.063-.028.033-.029.078-.029z" fill="#4D4D4D"/></svg>
